X: 6453
T: Cat And The Dog, The
R: slip jig
M: 9/8
K: Eminor
|:BBB BAB g2e|BBB BAB dBA|BBB BAB g2e|agf g2e dBA:|
|:Bee efe g2e|Bee ege dBA|Bee efe g2e|agf g2e dBA:|
|:GGG BGB e2d|GGG BGB dBA|GGG BGB e2d|Bee ege dBA:|
B2a ged e2d|B2a gfe dBA|B2a ged e2d|Bee ege dBA|
B2a ged e2d|B2a gfe dBA|BBB BAB g2e|a2f g2e dBA||

